img/svg/caret-l-orange.svg

<svg xmlns="http://www.w3.org/2000/svg" preserveAspectRatio="xMidYMid" width="9" height="18" viewBox="0 0 9 18"><defs><style>.cls-2 { fill: #ff4700; }</style></defs><path d="M1.084 8.793l-.61-.627 7.927-8.163.609.628-7.926 8.162zm7.549 7.856l-.617.636-8.027-8.266.618-.636 8.026 8.266z" id="path-1" class="cls-2" fill-rule="evenodd"/></svg>

<svg xmlns="http://www.w3.org/2000/svg" xmlns:xlink="http://www.w3.org/1999/xlink" preserveAspectRatio="xMidYMid" width="9" height="18" viewBox="0 0 9 18">
  <defs>
    <style>

      .cls-2 {
        fill: #ff4700;
      }
    </style>
  </defs>
  <path d="M1.084,8.793 C1.084,8.793 0.474,8.166 0.474,8.166 C0.474,8.166 8.401,0.003 8.401,0.003 C8.401,0.003 9.010,0.631 9.010,0.631 C9.010,0.631 1.084,8.793 1.084,8.793 ZM8.633,16.649 C8.633,16.649 8.016,17.285 8.016,17.285 C8.016,17.285 -0.011,9.019 -0.011,9.019 C-0.011,9.019 0.607,8.383 0.607,8.383 C0.607,8.383 8.633,16.649 8.633,16.649 Z" id="path-1" class="cls-2" fill-rule="evenodd"/>
</svg>
